src/images/bg/train/slev.svg

<svg fill="none" height="44" viewBox="0 0 18 44" width="18" xmlns="http://www.w3.org/2000/svg" xmlns:xlink="http://www.w3.org/1999/xlink"><linearGradient id="a" gradientUnits="userSpaceOnUse" x1="8.74999" x2="8.74999" y1="42.45" y2=".809986"><stop offset="0" stop-color="#edd9da"/><stop offset=".08" stop-color="#dac3c2"/><stop offset=".09" stop-color="#89665a"/><stop offset=".1" stop-color="#9f7f76"/><stop offset=".11" stop-color="#b1958e"/><stop offset=".12" stop-color="#c0a5a0"/><stop offset=".13" stop-color="#cab0ad"/><stop offset=".15" stop-color="#cfb7b4"/><stop offset=".18" stop-color="#d1b9b6"/><stop offset=".37" stop-color="#c8a9a2"/><stop offset=".78" stop-color="#b78a7c"/><stop offset="1" stop-color="#b07e6e"/></linearGradient><path clip-rule="evenodd" d="m17.18 7.62999-2.21 6.57011-1.52 24.7099h1.33v4.57h-14.78003052v-4.29h1.53003052l1.90002-25.84 2.69001-9.18998c.35436-1.2021 1.08854-2.2571 2.09265-3.00702 1.0041-.749924 2.22402-1.15446087 3.47732-1.15301521.9182-.00002311 1.8233.21839421 2.6405.63714621.8172.418749 1.5232 1.025879 2.0595 1.771239s.8876 1.60758 1.025 2.5155c.1374.90793.0568 1.83547-.235 2.70612z" fill="url(#a)" fill-rule="evenodd"/></svg>

<svg width="18" height="44" viewBox="0 0 18 44" fill="none" xmlns="http://www.w3.org/2000/svg">
<path fill-rule="evenodd" clip-rule="evenodd" d="M17.18 7.62999L14.97 14.2001L13.45 38.91H14.78V43.48H-3.05176e-05V39.19H1.53L3.43002 13.35L6.12003 4.16002C6.47439 2.95792 7.20857 1.90292 8.21268 1.153C9.21678 0.403076 10.4367 -0.00146087 11.69 -1.52123e-05V-1.52123e-05C12.6082 -3.83228e-05 13.5133 0.218379 14.3305 0.637131C15.1477 1.05588 15.8537 1.66301 16.39 2.40837C16.9263 3.15373 17.2776 4.01595 17.415 4.92387C17.5524 5.8318 17.4718 6.75934 17.18 7.62999V7.62999Z" fill="url(#paint0_linear)"/>
<defs>
<linearGradient id="paint0_linear" x1="8.74999" y1="42.45" x2="8.74999" y2="0.809986" gradientUnits="userSpaceOnUse">
<stop stop-color="#EDD9DA"/>
<stop offset="0.08" stop-color="#DAC3C2"/>
<stop offset="0.09" stop-color="#89665A"/>
<stop offset="0.1" stop-color="#9F7F76"/>
<stop offset="0.11" stop-color="#B1958E"/>
<stop offset="0.12" stop-color="#C0A5A0"/>
<stop offset="0.13" stop-color="#CAB0AD"/>
<stop offset="0.15" stop-color="#CFB7B4"/>
<stop offset="0.18" stop-color="#D1B9B6"/>
<stop offset="0.37" stop-color="#C8A9A2"/>
<stop offset="0.78" stop-color="#B78A7C"/>
<stop offset="1" stop-color="#B07E6E"/>
</linearGradient>
</defs>
</svg>
